svg/editor/letter_spacing_fill.svg

<?xml version="1.0" encoding="UTF-8"?>
<svg width="24px" height="24px" viewBox="0 0 24 24" version="1.1" xmlns="http://www.w3.org/2000/svg" xmlns:xlink="http://www.w3.org/1999/xlink">
    <title>letter_spacing_fill</title>
    <g id="页面-1" stroke="none" stroke-width="1" fill="none" fill-rule="evenodd">
        <g id="Editor" transform="translate(-288.000000, -240.000000)">
            <g id="letter_spacing_fill" transform="translate(288.000000, 240.000000)">
                 <path d="M24,0 L24,24 L0,24 L0,0 L24,0 Z M12.5934901,23.257841 L12.5819402,23.2595131 L12.5108777,23.2950439 L12.4918791,23.2987469 L12.4918791,23.2987469 L12.4767152,23.2950439 L12.4056548,23.2595131 C12.3958229,23.2563662 12.3870493,23.2590235 12.3821421,23.2649074 L12.3780323,23.275831 L12.360941,23.7031097 L12.3658947,23.7234994 L12.3769048,23.7357139 L12.4804777,23.8096931 L12.4953491,23.8136134 L12.4953491,23.8136134 L12.5071152,23.8096931 L12.6106902,23.7357139 L12.6232938,23.7196733 L12.6232938,23.7196733 L12.6266527,23.7031097 L12.609561,23.275831 C12.6075724,23.2657013 12.6010112,23.2592993 12.5934901,23.257841 L12.5934901,23.257841 Z M12.8583906,23.1452862 L12.8445485,23.1473072 L12.6598443,23.2396597 L12.6498822,23.2499052 L12.6498822,23.2499052 L12.6471943,23.2611114 L12.6650943,23.6906389 L12.6699349,23.7034178 L12.6699349,23.7034178 L12.678386,23.7104931 L12.8793402,23.8032389 C12.8914285,23.8068999 12.9022333,23.8029875 12.9078286,23.7952264 L12.9118235,23.7811639 L12.8776777,23.1665331 C12.8752882,23.1545897 12.8674102,23.1470016 12.8583906,23.1452862 L12.8583906,23.1452862 Z M12.1430473,23.1473072 C12.1332178,23.1423925 12.1221763,23.1452606 12.1156365,23.1525954 L12.1099173,23.1665331 L12.0757714,23.7811639 C12.0751323,23.7926639 12.0828099,23.8018602 12.0926481,23.8045676 L12.108256,23.8032389 L12.3092106,23.7104931 L12.3186497,23.7024347 L12.3186497,23.7024347 L12.3225043,23.6906389 L12.340401,23.2611114 L12.337245,23.2485176 L12.337245,23.2485176 L12.3277531,23.2396597 L12.1430473,23.1473072 Z" id="MingCute" fill-rule="nonzero"></path>
                <path d="M5.39792,13.5437 C5.09766,14.3158 4.22834,14.6983 3.45625,14.398 C2.68415,14.0977 2.30165,13.2284 2.60191,12.4563 L5.92068,3.92233 C6.25416,3.06483 7.07985,2.5 7.99991,2.5 C8.91998,2.5 9.74567,3.06483 10.0791,3.92233 L13.3979,12.4563 C13.463,12.6236 13.496,12.7954 13.4999,12.965 L13.4999,4 C13.4999,3.17157 14.1715,2.5 14.9999,2.5 C15.8283,2.5 16.4999,3.17157 16.4999,4 L16.4999,6.62602 C16.8195,6.54375 17.1546,6.5 17.4999,6.5 C19.7091,6.5 21.49995,8.29086 21.49995,10.5 C21.49995,12.4491 20.1058,14.0726 18.2604,14.4278 C18.5091,14.493 18.7443,14.6231 18.9393,14.818 L21.0606,16.9393 C21.6464,17.5251 21.6464,18.4749 21.0606,19.0606 L18.9393,21.182 C18.3535,21.7677 17.4037,21.7677 16.8179,21.182 C16.3631,20.7271 16.2614,20.0529 16.5129,19.5 L7.48695,19.5 C7.7384,20.0529 7.63672,20.7271 7.1819,21.182 C6.59611,21.7677 5.64636,21.7677 5.06058,21.182 L2.93925,19.0606 C2.35347,18.4749 2.35347,17.5251 2.93925,16.9393 L5.06057,14.818 C5.64636,14.2322 6.59611,14.2322 7.18189,14.818 C7.63672,15.2728 7.7384,15.9471 7.48695,16.5 L16.5129,16.5 C16.2614,15.9471 16.3631,15.2728 16.8179,14.818 C16.9601,14.6758 17.1237,14.5682 17.2984,14.495 C16.8136,14.4709 16.3516,14.3606 15.9273,14.179 C15.6721,14.3801 15.35,14.5 14.9999,14.5 C14.1797,14.5 13.5132,13.8416 13.5001,13.0245 C13.4902,13.6158 13.1288,14.1704 12.5436,14.398 C11.7715,14.6983 10.9022,14.3158 10.6019,13.5437 L9.80715,11.5 L6.19268,11.5 L5.39792,13.5437 Z M16.4999,10.5 C16.4999,11.0523 16.9476,11.5 17.4999,11.5 C18.0522,11.5 18.4999,11.0523 18.4999,10.5 C18.4999,9.94772 18.0522,9.5 17.4999,9.5 C16.9476,9.5 16.4999,9.94772 16.4999,10.5 Z M8.64048,8.5 L7.99991,6.85283 L7.35935,8.5 L8.64048,8.5 Z" id="形状" fill="#09244B"></path>
            </g>
        </g>
    </g>
</svg>

<svg xmlns="http://www.w3.org/2000/svg" width="24" height="24"><g fill="none" fill-rule="evenodd"><path d="M24 0v24H0V0h24ZM12.593 23.258l-.011.002-.071.035-.02.004-.014-.004-.071-.035c-.01-.004-.019-.001-.024.005l-.004.01-.017.428.005.02.01.013.104.074.015.004.012-.004.104-.074.012-.016.004-.017-.017-.427c-.002-.01-.009-.017-.017-.018Zm.265-.113-.013.002-.185.093-.01.01-.003.011.018.43.005.012.008.007.201.093c.012.004.023 0 .029-.008l.004-.014-.034-.614c-.003-.012-.01-.02-.02-.022Zm-.715.002a.023.023 0 0 0-.027.006l-.006.014-.034.614c0 .012.007.02.017.024l.015-.002.201-.093.01-.008.004-.011.017-.43-.003-.012-.01-.01-.184-.092Z"/><path fill="#09244B" d="M5.398 13.544a1.5 1.5 0 1 1-2.796-1.088L5.92 3.922a2.23 2.23 0 0 1 4.158 0l3.319 8.534c.065.168.098.34.102.509V4a1.5 1.5 0 0 1 3 0v2.626a4 4 0 1 1 1.76 7.802c.25.065.484.195.68.39l2.12 2.121a1.5 1.5 0 0 1 0 2.122l-2.12 2.121a1.5 1.5 0 0 1-2.427-1.682H7.487a1.5 1.5 0 0 1-2.426 1.682l-2.122-2.121a1.5 1.5 0 0 1 0-2.122l2.122-2.121A1.5 1.5 0 0 1 7.487 16.5h9.026a1.5 1.5 0 0 1 .785-2.005 3.98 3.98 0 0 1-1.37-.316 1.5 1.5 0 0 1-2.427-1.155 1.5 1.5 0 0 1-2.9.52L9.808 11.5H6.193l-.795 2.044ZM16.5 10.5a1 1 0 1 0 2 0 1 1 0 0 0-2 0Zm-7.86-2L8 6.853 7.36 8.5h1.28Z"/></g></svg>
